!!!COM: Palestrina, Giovanni Perluigi da
!!!OPR: Missa Regina coeli (1600)
!!!OTL: Sanctus
**kern	**kern	**kern	**kern	**kern
*Ibass	*Itenor	*Itenor	*Icalto	*Icant
!Bassus	!Tenor 2	!Tenor 1	!Altus	!Cantus
*clefF4	*clefGv2	*clefGv2	*clefG2	*clefG2
*k[b-]	*k[b-]	*k[b-]	*k[b-]	*k[b-]
*F:ion	*F:ion	*F:ion	*F:ion	*F:ion
*M4/2	*M4/2	*M4/2	*M4/2	*M4/2
=1	=1	=1	=1	=1
0r	1r	1c	0r	0r
.	1F	2.f	.	.
.	.	4e	.	.
=2	=2	=2	=2	=2
0r	1B-	4d	0f	0r
.	.	4c	.	.
.	.	2d	.	.
.	2A	2c	.	.
.	2B-	2d	.	.
=3	=3	=3	=3	=3
0r	4G	4B-	1g	0r
.	4A	4A	.	.
.	4B-	4G	.	.
.	4c	4A	.	.
.	4d	4B-	1f	.
.	4e	4c	.	.
.	[2f	2d	.	.
=4	=4	=4	=4	=4
1C	2f]	1c	1g	1r
.	2e	.	.	.
1F	2f	1r	1a	[1cc
.	2F	.	.	.
=5	=5	=5	=5	=5
2E	2G	1c	2g	1cc]
2F	2A	.	2.f	.
4D	2B-	1f	.	1dd
4E	.	.	4g	.
4F	[2A	.	4a	.
4G	.	.	4b-	.
=6	=6	=6	=6	=6
4A	2A]	2e	1.a	1cc
4B-	.	.	.	.
1c	2F	2f	.	.
.	2f	1d	.	1dd
2B	[2g	.	2d	.
=7	=7	=7	=7	=7
2.c	4g]	[0c	1g	1ee
.	4f	.	.	.
.	4e	.	.	.
4B-	4d	.	.	.
4A	1e	.	1a	1cc
4G	.	.	.	.
2A	.	.	.	.
=8	=8	=8	=8	=8
2.F	2.a	1c]	1r	1ff
8E	8g	.	.	.
8D	8f	.	.	.
2C	2g	1r	1c	2ee
2F	2a	.	.	2ff
=9	=9	=9	=9	=9
1BB-	2r	1B-	1f	1dd
.	2d	.	.	.
2r	2g	1c	2e	2cc
2F	[2f	.	2f	2a
=10	=10	=10	=10	=10
2BB-	2f]	1B-	4d	1dd
.	.	.	4e	.
2B-	2d	.	4f	.
.	.	.	4g	.
2F	2f	1c	4a	1cc
.	.	.	4b-	.
2A	2e	.	[2cc	.
=11	=11	=11	=11	=11
1G	2.g	2d	2cc]	0r
.	.	2g	2b-	.
.	4f	.	.	.
2r	1e	2c	2a	.
2c	.	2e	[2g	.
=12	=12	=12	=12	=12
2F	2r	2d	4g]	1f
.	.	.	4f	.
2A	2c	2c	1f	.
1G	2B-	1g	.	1b-
.	2G	.	2e	.
=13	=13	=13	=13	=13
2F	2A	2c	1f	2a
2D	2F	2d	.	2b-
1E-	2.G	[1B-	1e-	4g
.	.	.	.	4a
.	.	.	.	4b-
.	4A	.	.	4cc
=14	=14	=14	=14	=14
1BB-	2B-	2B-]	1d	4dd
.	.	.	.	4ee
.	2F	2A	.	1ff
1C	2r	1G	2.c	.
.	[2c	.	.	2ee
.	.	.	4B-	.
=15	=15	=15	=15	=15
1r	4c]	2F	2A	0ff
.	4A	.	.	.
.	2d	1B-	2B-	.
1F	2.c	.	1f	.
.	.	2A	.	.
.	4B-	.	.	.
=16	=16	=16	=16	=16
2E	2c	2G	1r	1r
2D	2d	1B-	.	.
2.F	1c	.	1f	2r
.	.	2A	.	[2cc
4G	.	.	.	.
=17	=17	=17	=17	=17
2A	0r	2c	2e	2cc]
2B-	.	2.d	2d	2b-
2.F	.	.	2f	2a
.	.	4c	.	.
.	.	4A	2f	[2cc
4G	.	4B-	.	.
=18	=18	=18	=18	=18
4A	0r	2c	2e	2cc]
4B-	.	.	.	.
1c	.	2A	2c	2f
.	.	1G	1d	1g
2B	.	.	.	.
=19	=19	=19	=19	=19
2c	2r	0c	2e	1r
2F	1f	.	1a	.
1C	.	.	.	1cc
.	2e	.	2g	.
=20	=20	=20	=20	=20
1D	2d	0r	2f	2b-
.	1f	.	1a	2g
1C	.	.	.	2cc
.	2e	.	2g	2cc
=21	=21	=21	=21	=21
0r	2d	0r	2f	2b-
.	2B-	.	2d	2g
.	2c	.	2e	2.a
.	2d	.	[2f	.
.	.	.	.	8g
.	.	.	.	8f
=22	=22	=22	=22	=22
2r	1c	1r	2f]	1g
2c	.	.	2e	.
2B-	2d	2r	1f	2r
2A	[2c	2f	.	2cc
=23	=23	=23	=23	=23
2c	4c]	2e	0r	2cc
.	4A	.	.	.
2B-	2d	2d	.	2f
2A	2c	2f	.	[1a
2F	[2d	2f	.	.
=24	=24	=24	=24	=24
1A	4d]	2e	0r	2a]
.	4c	.	.	.
.	1c	2c	.	2f
2.G	.	1d	.	[1g
.	2B	.	.	.
4F	.	.	.	.
=25	=25	=25	=25	=25
2E	1c	2r	1r	2g]
2F	.	1f	.	2a
1C	1c	.	1cc	1g
.	.	2e	.	.
=26	=26	=26	=26	=26
1r	2f	1d	2b-	2f
.	2f	.	2a	1ff
1C	1g	2c	2cc	.
.	.	2c	2cc	2ee
=27	=27	=27	=27	=27
1G	1g	2d	2b-	1dd
.	.	2B-	2g	.
1F	[1c	1A	2.a	2ff
.	.	.	.	2ff
.	.	.	8g	.
.	.	.	8f	.
=28	=28	=28	=28	=28
1C	2c]	2r	0g	2ee
.	2e	1c	.	2cc
1G	2.d	.	.	1dd
.	.	2B-	.	.
.	4e	.	.	.
=29	=29	=29	=29	=29
2r	1f	2.A	1a	1cc
2F	.	.	.	.
.	.	4B-	.	.
2E	2r	2c	2g	1r
2D	[2B-	2d	[2f	.
=30	=30	=30	=30	=30
1F	2B-]	0c	4f]	2r
.	.	.	4g	.
.	2A	.	4a	1ff
.	.	.	4b-	.
1C	1G	.	2cc	.
.	.	.	2c	2ee
=31	=31	=31	=31	=31
1BB-	2B-	2.f	2d	1dd
.	2B-	.	1f	.
.	.	4e	.	.
1D	2A	4d	.	2ff
.	.	4c	.	.
.	2F	2B-	2d	2ff
=32	=32	=32	=32	=32
0C	2G	0c	2e	4ee
.	.	.	.	4dd
.	2A	.	1f	4cc
.	.	.	.	4b-
.	1G	.	.	2cc
.	.	.	2e	2g
=33	=33	=33	=33	=33
0F	0F	0c	0f	0a
=34	=34	=34	=34	=34
0r	0r	1r	0cc	0r
.	.	1c	.	.
=35	=35	=35	=35	=35
0r	0r	2d	1f	0r
.	.	2.f	.	.
.	.	.	1g	.
.	.	8e	.	.
.	.	8d	.	.
.	.	2e	.	.
=36	=36	=36	=36	=36
0r	0r	4f	1a	0r
.	.	4e	.	.
.	.	4d	.	.
.	.	4c	.	.
.	.	4B-	1b-	.
.	.	4G	.	.
.	.	[2g	.	.
=37	=37	=37	=37	=37
0r	0c	2g]	1a	1r
.	.	1f	.	.
.	.	.	1g	2r
.	.	2e	.	2g
=38	=38	=38	=38	=38
0r	1F	1f	2f	2a
.	.	.	2a	2.cc
.	1G	1d	2.g	.
.	.	.	.	8b
.	.	.	.	8a
.	.	.	.	2b
.	.	.	4f	.
=39	=39	=39	=39	=39
0r	1A	2r	1e	4cc
.	.	.	.	4b-
.	.	2c	.	4a
.	.	.	.	4g
.	1B-	2d	2r	4f
.	.	.	.	4d
.	.	[2f	2d	[2dd
=40	=40	=40	=40	=40
0r	1A	4f]	2f	2dd]
.	.	4e	.	.
.	.	2c	2e	1cc
.	1G	1d	1g	.
.	.	.	.	2b
=41	=41	=41	=41	=41
0r	1F	0f	2.a	0cc
.	.	.	4g	.
.	2r	.	4a	.
.	.	.	4g	.
.	2F	.	4f	.
.	.	.	4e	.
=42	=42	=42	=42	=42
0r	2G	1B-	1d	1r
.	1B-	.	.	.
.	.	1c	1r	[1ff
.	2A	.	.	.
=43	=43	=43	=43	=43
0r	1B-	1d	2r	1ff]
.	.	.	2f	.
.	1r	2.e-	2g	1b-
.	.	.	[2b-	.
.	.	4d	.	.
=44	=44	=44	=44	=44
0r	0r	1c	4b-]	1cc
.	.	.	8a	.
.	.	.	8g	.
.	.	.	2a	.
.	.	2B-	4b-	1dd
.	.	.	4a	.
.	.	2B-	4g	.
.	.	.	4f	.
=45	=45	=45	=45	=45
0r	2r	1c	4e-	1ee-
.	.	.	4c	.
.	2c	.	1cc	.
.	1d	1G	.	1dd
.	.	.	[2b-	.
=46	=46	=46	=46	=46
0r	2.f	0r	4b-]	0cc
.	.	.	4a	.
.	.	.	4a	.
.	8e	.	8g	.
.	8d	.	8f	.
.	2e	.	2g	.
.	2f	.	2a	.
=47	=47	=47	=47	=47
0r	2B-	1r	4g	2.b-
.	.	.	4f	.
.	2B-	.	1f	.
.	.	.	.	4a
.	1c	2r	.	1g
.	.	[2c	2e	.
=48	=48	=48	=48	=48
0r	2F	2c]	1f	1a
.	2f	2A	.	.
.	2d	2B-	1r	1r
.	2e	2c	.	.
=49	=49	=49	=49	=49
0r	2f	4d	2r	0r
.	.	4c	.	.
.	2.g	4B-	1b-	.
.	.	4A	.	.
.	.	2G	.	.
.	4f	.	.	.
.	4e	2c	2g	.
.	4d	.	.	.
=50	=50	=50	=50	=50
0r	2c	2A	2a	1r
.	2d	2G	2b-	.
.	2e	2c	2.cc	2r
.	[2f	2F	.	[2a
.	.	.	4b-	.
=51	=51	=51	=51	=51
0r	4f]	2.f	4a	2a]
.	4e	.	4g	.
.	4d	.	2a	2f
.	4c	4e	.	.
.	2B-	2d	2g	2g
.	2A	2c	[2f	2a
=52	=52	=52	=52	=52
0r	1G	1B-	2f]	1b-
.	.	.	2e	.
.	[1F	1c	1f	2a
.	.	.	.	[2cc
=53	=53	=53	=53	=53
0r	1F]	1f	1a	2cc]
.	.	.	.	2a
.	1r	2d	2f	2b-
.	.	2e	2g	2cc
=54	=54	=54	=54	=54
0r	0r	2f	2a	2.dd
.	.	2.g	2b-	.
.	.	.	.	4cc
.	.	.	2.g	4b-
.	.	4f	.	4a
.	.	4e	.	2g
.	.	4d	4f	.
=55	=55	=55	=55	=55
0r	2r	4c	2.e	2.cc
.	.	4d	.	.
.	1c	4e	.	.
.	.	4f	4d	4dd
.	.	2g	1c	2ee
.	2A	2a	.	[2ff
=56	=56	=56	=56	=56
0r	2B-	1g	1r	4ff]
.	.	.	.	8ee
.	.	.	.	8dd
.	2c	.	.	2ee
.	2.d	1f	2r	2ff
.	.	.	[2f	[2dd
.	4c	.	.	.
=57	=57	=57	=57	=57
0r	4B-	2r	2f]	4dd]
.	4A	.	.	4cc
.	2B-	2f	2d	4b-
.	.	.	.	4a
.	2c	2e	2e	2g
.	2A	2c	2f	[2cc
=58	=58	=58	=58	=58
0r	1G	1d	2.g	4cc]
.	.	.	.	8b
.	.	.	.	8a
.	.	.	.	2b
.	.	.	4f	.
.	2.A	4c	4e	[1cc
.	.	4B-	4d	.
.	.	4A	4c	.
.	4B-	4G	4B-	.
=59	=59	=59	=59	=59
0r	2c	2F	2A	1cc]
.	2F	1f	2a	.
.	1c	.	1g	[1cc
.	.	2e	.	.
=60	=60	=60	=60	=60
0r	1F	1f	1a	1cc]
.	1r	1r	1r	1r
=61	=61	=61	=61	=61
0F	1c	1f	1a	0cc
.	1A	1c	[1f	.
=62	=62	=62	=62	=62
1D	1B-	2d	2f]	1ff
.	.	1d	2d	.
1E	2c	.	2g	1ee
.	2c	[2c	2e	.
=63	=63	=63	=63	=63
1F	1d	2c]	1a	0dd
.	.	4B	.	.
.	.	4A	.	.
1G	1d	2B	2g	.
.	.	2B	2g	.
=64	=64	=64	=64	=64
2.A	2r	1c	2e	2.cc
.	2A	.	2e	.
4G	.	.	.	4b-
2F	2.c	1r	2f	2a
2E	.	.	2g	2g
.	4B-	.	.	.
=65	=65	=65	=65	=65
0F	2A	0c	[0a	4f
.	.	.	.	4g
.	4F	.	.	4a
.	4G	.	.	4b-
.	4A	.	.	[1cc
.	4B-	.	.	.
.	4c	.	.	.
.	4d	.	.	.
=66	=66	=66	=66	=66
0r	2e	1A	1a]	1cc]
.	1f	.	.	.
.	.	1B-	[1g	1cc
.	4e	.	.	.
.	4d	.	.	.
=67	=67	=67	=67	=67
1r	1e	1c	1g]	2r
.	.	.	.	2cc
2r	1f	2.d	2f	2a
2BB-	.	.	4d	[2b-
.	.	4c	4e	.
=68	=68	=68	=68	=68
2BB-	2r	2B-	4f	2b-]
.	.	.	4g	.
2F	2f	2A	2a	2cc
2BB-	2d	1B-	2f	1dd
2BB-	2d	.	[2g	.
=69	=69	=69	=69	=69
0C	2e	1A	2g]	0cc
.	2f	.	1f	.
.	1g	1G	.	.
.	.	.	2e	.
=70	=70	=70	=70	=70
0F	0c	0F	0f	0a
==	==	==	==	==
*-	*-	*-	*-	*-
!!!CDT: 1525/^1526/-1594/2/2
!!!OCY: Italia
!!!AGN: Mass (Paraphrase)
!!!AST: renaissance, vocal
!!!ASW: Antiphon
!!!PWK: Masses, Book 11
!!!RNB: Cadence finals: C
!!!YOR: Le Opere Complete, v. 28, p. 32
!!!YOO: Rome, Italy: Fratelli Scalera
!!!END: 1992//
!!!EED: John Miller
!!!YEC: Copyright 2000, John Miller
!!!YEN: United States of America
!!!YEM: Rights to all derivative electronic formats reserved.
!!!YEM: Refer to licensing agreement for further details.
!!!YEM: This file must be accompanied by the licensing agreement.
!!!YEM: A copy of the licensing agreement may be found at http://www.music-cog.ohio-state.edu/HumdrumDatabases/Palestrina/license.txt
!!!EMD: converted to Humdrum by Bret Aarden
